public/assets/logos/software/css.svg

<svg fill="none" height="10" viewBox="0 0 10 10" width="10" xmlns="http://www.w3.org/2000/svg" xmlns:xlink="http://www.w3.org/1999/xlink"><clipPath id="a"><path d="m.633999 0h8.732v10h-8.732z"/></clipPath><g clip-path="url(#a)"><path d="m1.36516 8.95249-.731161-8.9356519 8.732001.0179569-.77314 8.917695-3.55991 1.0308z" fill="#1b73ba"/><path d="m5.03298 9.12024v-8.25245l3.59589.011972-.64124 7.383468z" fill="#1c88c7"/><path d="m7.73587 1.92261h-5.53165l.14985 1.07868h2.62495l-2.58298 1.10875.14978 1.04277h3.80567l-.13788 1.45628-1.28853.25175-1.16861-.29964-.08993-.82707h-1.07276l.14379 1.72006 2.30138.64124 2.20553-.70117.28168-3.36217h-2.33145l2.54109-1.05474z" fill="#fff"/></g></svg>

<svg width="10" height="10" viewBox="0 0 10 10" fill="none" xmlns="http://www.w3.org/2000/svg">
<g clip-path="url(#clip0_9_22)">
<path d="M1.36516 8.95249L0.633999 0.0168381L9.366 0.034795L8.59286 8.95249L5.03295 9.98329L1.36516 8.95249Z" fill="#1B73BA"/>
<path d="M5.03298 9.12024V0.86779L8.62887 0.879762L7.98763 8.26323L5.03298 9.12024Z" fill="#1C88C7"/>
<path d="M7.73587 1.92261H2.20422L2.35407 3.00129H4.97902L2.39604 4.11004L2.54582 5.15281H6.35149L6.21361 6.60909L4.92508 6.86084L3.75647 6.5612L3.66654 5.73413H2.59378L2.73757 7.45419L5.03895 8.09543L7.24448 7.39426L7.52616 4.03209H5.19471L7.7358 2.97735L7.73587 1.92261Z" fill="white"/>
</g>
<defs>
<clipPath id="clip0_9_22">
<rect width="8.732" height="10" fill="white" transform="translate(0.633999)"/>
</clipPath>
</defs>
</svg>
